X: 0003
T: Schottis Rheinl\"ander
O: efter Storbo J\"ons och Storjo Halvar
%R: shottish
B: Paul B\"ackstr\"om's "L\aatar fr\aan Dalarna" collection" 1974
Z: 2022 John Chambers <jc:trillian.mit.edu>
M: 2/4
L: 1/16
K: Dm
% - - - - - - - - - -
|:\
a>age f2{gf}ed | ^c2A2 A4 |\
A>=B^cd e2e2 | {fe} d>^cdf a4 |\
a>age f2{gf}ed | ^c2A2 A4 |
A>=B^cd e>^fec | d2d2 d4 :|\
|:\
f2fg f2{gf}ed | e2a2 {b}a2ge |\
f2fg f2{gf}ed | e2e^c A4 |
f2fg f2{gf}ed | e2a2 {b}a2ge |\
.f2df .e2Ac | d2d2 d4 :|\
|:\
d2d2 ({e}Td>^c)ed | ^c2AA A>bag |
f2fg f2af | (f2{gf}e)^c A4 |\
d2d2 ({e}Td>^c)ed | ^c2AA A>bag |\
.f2df .e2A^c | d2d2 d4 :|
% - - - - - - - - - -
